X: 571
M: C|
L: 1/8
K: Gdor
V: 1
(DG)(BG) dGBG | (CFA)f F>GA(G/F/) |\
|: g |\
bgdg (Gdg)b | afcf (Fcf)a |
bgdg feTcA | Af (d/c/B/A/) BGGg |\
bgdg (Gdg)b | afcf (Fcf)a |\
bga^f gd=fc | Af d/c/B/A/ BGG |]
V: 2 clef=bass middle=d
z |\
g2g2 g2g2 | f2f2 f2f2 |\
g2g2 g2g2 | d2d2 G2G :|\
|: z |\
g2g2 g2g2 | f2f2 f2f2 |\
g2g2 B2c2 | d2d2 G2G2 |\
g2g2 g2g2 | f2f2 F2F2 |\

